public/showcase/resources/images/home/verizon.svg

<svg height="17" viewBox="0 0 102 17" width="102" xmlns="http://www.w3.org/2000/svg" xmlns:xlink="http://www.w3.org/1999/xlink"><mask id="a" fill="#fff"><path d="m5.89324615 7.51045255v-7.15185374h-5.53228309v7.15185374z" fill="none"/></mask><mask id="b" fill="#fff"><path d="m0 .55110357v9.28734864h9.80659385v-9.28734864z" fill="none"/></mask><g fill="#fff" fill-rule="evenodd" transform=""><path d="m64.7112323 8.07527466h.0572769l.4119231 5.27124324h1.1141539l2.9376-6.77791161h-1.0576616l-2.1726 5.33412581-.3522923-5.33412581h-1.2326308l-2.1137538 5.33412581-.3538615-5.33412581h-1.173l.7045846 6.77791161h1.115723z"/><path d="m71.2295031 5.37702194.2330307-1.31802041h-1.0568769l-.2338154 1.31802041z"/><path d="m71.0509246 6.56835476h-1.0560923l-1.1165077 6.77791154h1.0584462z"/><g transform="translate(71.4 3.50773)"><path d="m1.76648308 5.88497789c.17575384-1.00276871.93996923-1.8202432 1.938-1.8202432h.35307692l.23224615-1.19057823h-.29266153c-.82149231 0-1.46723077.50138436-1.99449231 1.31634354l.17496923-1.13021088h-.99881539l-1.17378461 6.77791156h1.11572308z"/><path d="m4.93640769 5.88497789c.17810769-.94156292.93996923-1.8202432 1.76224616-1.9460085v-1.00193027c-1.70104616.24985374-2.70143077 1.81940476-3.05215385 3.70169217-.29501538 1.9434932.52726154 3.38727891 2.28872308 3.38727891.29501538 0 .58767692 0 .76343077-.06120578v-1.00528401c-.11769231.06288265-.29344616.06288265-.46841539.06288265-1.17613846 0-1.70418461-.81579762-1.4688-2.19586224h1.93721539v-.94156293zm1.76224616 4.07982653v-1.00528401c.765-.18864796 1.29383077-.81663606 1.40995384-1.25513776h1.05609231c-.05806154.31441327-.52883077 1.31802041-1.40838462 1.88228742-.23616923.12660374-.52883076.31357483-1.05766153.37813435zm0-6.02583503c.11847692-.06204422.23616923-.06204422.35386153-.06204422 1.2899077 0 1.52529231 1.00528401 1.4076 2.00805272h-1.76146153v.94156293h2.70143077c.05884615-.37729592.1176923-.75291497.1176923-1.0664898v-.43934014c-.05884615-1.50582993-.76421538-2.44655442-2.1726-2.44655442-.23538461 0-.41035384 0-.64652307.06288266z"/><path d="m13.9211169 5.88497789c.1788923-.94156292.9391846-1.8202432 1.8218769-1.9460085v-1.00193027c-1.7622461.24985374-2.7618461 1.81940476-3.0552923 3.70169217-.350723 1.9434932.4715539 3.38727891 2.291077 3.38727891.2926615 0 .5280461 0 .7642153-.06120578v-1.00528401c-.177323.06288265-.2942307.06288265-.4715538.06288265-1.2326308 0-1.7010462-.81579762-1.4680154-2.19586224h1.9395692v-.94156293zm1.8218769 4.07982653v-1.00528401c.7618616-.18864796 1.2906924-.81663606 1.4083847-1.25513776h1.0576615c-.1184769.31441327-.5288308 1.31802041-1.4680154 1.88228742-.2361692.12660374-.5288308.31357483-.9980308.37813435zm0-6.02583503c.057277-.06204422.1757539-.06204422.2926616-.06204422 1.2906923 0 1.5268615 1.00528401 1.4083846 2.00805272h-1.7010462v.94156293h2.7006462c.0588462-.37729592.0588462-.75291497.1161231-1.0664898v-.43934014c-.0572769-1.50582993-.7618616-2.44655442-2.2306616-2.44655442-.1749692 0-.4103538 0-.5861077.06288266z"/><path d="m12.5703231.55143895h-1.0568769l-1.52686158 9.28734864h1.05844618z"/><path d="m24.3739985 5.00604609c.0596307-.37561905.1765384-2.13214116-2.0549077-2.13214116-1.2922616 0-2.525677.62631123-2.8199077 2.13214116-.1161231.94156292.3538615 1.44378571 1.2334154 1.69363945l1.1745692.31441327c.8811231.25069218 1.1761385.43934014 1.1157231.94156292-.1176923.75207654-.8795539 1.0664898-1.6429846 1.0664898-1.5268616 0-1.5268616-.81579762-1.4695847-1.37922619h-1.0560923c-.0588461.81495918-.1765384 2.38283336 2.3491385 2.38283336 1.4688 0 2.7014308-.81495921 2.9360308-2.25790649.1169077-.87951871-.2346-1.44378571-1.5276462-1.75652211l-.9972461-.31441326c-.8214924-.18864796-1.1141539-.31441327-.9988154-.87951871.1169077-.87868027 1.0568769-1.00276871 1.4107384-1.00276871 1.3503231 0 1.3503231.75291497 1.2899077 1.19141667z"/><path d="m5.86507846 2.49073997c.05727692-.37561905.23616923-2.13214116-2.05490769-2.13214116-1.23341539 0-2.52724615.62631122-2.76027692 2.13214116-.17732308.94156292.35150769 1.44378571 1.173 1.69363945l1.17613846.31441327c.87955384.25069217 1.23341538.43934013 1.11493846.94156292-.11847692.75207653-.88112308 1.0664898-1.64298462 1.0664898-1.46958461 0-1.46958461-.81579762-1.46958461-1.37922619h-.99724615c-.1169077.81495918-.17732308 2.38283333 2.34835384 2.38283333 1.4076 0 2.6418-.81495918 2.8764-2.25790646.11847692-.87951871-.2346-1.44378572-1.4688-1.75652211l-1.05373846-.31441327c-.76421539-.18864795-1.11807692-.31441326-1.00038462-.8795187.1169077-.87868028 1.1165077-1.00276871 1.41152308-1.00276871 1.35032308 0 1.4076.75291497 1.35032308 1.19141667z" mask="url(#a)" transform="translate(24.323077 2.515306)"/></g><path d="m31.7094462 4.05942075-.4111385 2.69808503h4.2855692l-5.5189846 7.78068032-.3530769 2.3845102h8.6339077 19.9645384l.4111385-1.8529422-24.6643846-.908864 5.5213384-7.77900337.4111385-2.32246598z"/><g transform="translate(0 .153989)"><path d="m29.3606215 13.1921937h-3.4656461l1.5260769-9.28734863h3.4656462z"/><path d="m27.5997877 2.7134284.4676308-2.63604082h3.4648615l-.4699846 2.63604082z"/><path d="m1.46613231 9.83845221-1.46644616-9.28734864h3.46329231l.52961539 5.83551021 2.52410769-5.83551021h3.28989231l-4.46367693 9.28734864z" mask="url(#b)" transform="translate(0 3.353741)"/><path d="m49.3843985 13.1921937 1.5260769-9.28734863h3.1714154l-.2338154 1.50499149c.9391846-1.12853401 1.9364308-1.7565221 3.2286923-1.7565221 2.2895077 0 3.1722 1.44378571 2.6998615 3.95322278l-.8795538 5.58565646h-3.4664308l.765-4.95599149c.1741846-.87868027.0596308-1.69531633-.8811231-1.69531633-1.0560923 0-1.4664461.69003232-1.7026153 1.88228742l-.7642154 4.7690204z"/><path d="m18.7905185 13.1921937 1.5260769-9.28734863h3.1698461l-.3499384 1.8202432h.0572769c.7038-1.38090307 1.7041846-2.07177381 2.9948769-2.07177381.1176923 0 .2926616.06288265.4103539.06288265l-.5853231 3.64132483c-.2369539-.06539796-.4707692-.12660374-.6473077-.12660374-1.4083846 0-2.2298769.75291496-2.5845231 2.76180612l-.5280461 3.19946938z"/><path d="m44.5686646 6.16459609c-.8811231.24985374-1.2914769 1.38006462-1.4664461 2.25790646-.2950154 1.75736055.2330307 2.57483505 1.1149384 2.57483505.1176923 0 .2353846-.0628827.3515077-.0628827v2.4448776c-.2942308.0628826-.5868923.0628826-.9391846.0628826-2.8183385 0-4.6982769-1.6307568-4.1686615-4.83022615.4676307-2.95045409 2.5241077-4.64409354 5.1078461-4.89562415zm.4707692-.06288265c-.1749692 0-.2934461 0-.4707692.06288265v-2.44823129c.2346-.06288266.4707692-.06288266.6449539-.06288266 3.1133538 0 4.6998461 1.94517007 4.2282923 4.76902041-.5272616 3.01333675-2.4660462 4.64409355-4.8732462 4.95682995v-2.4448776c.7634308-.1894864 1.2914769-1.00444555 1.5276462-2.51195235.2330307-1.38006462-.1781077-2.3845102-1.056877-2.32078911z"/><path d="m12.3292892 7.48119116h1.5864923v1.88396428h-1.8791538c-.1757539 1.12769556.4715538 1.81856636 1.4099538 1.81856636.1765385 0 .2942308 0 .4692-.0620442v2.2579064c-.3530769.0620442-.7038.0620442-1.0576615.0620442-2.8175538 0-4.69592308-1.692801-4.16866154-4.82938772.46998462-2.82468878 2.64336924-4.70697619 5.22632304-4.89646259v2.13465646c-.8803384.12408844-1.4076.75291497-1.5864923 1.63075681zm1.5864923 5.89839284v-2.2579064c.3522923-.1249269.7045847-.3764575.9399693-.7537535h3.3471692c-.8214923 1.9460086-2.5837385 2.7609677-4.2871385 3.0116599zm0-5.89839284h1.5864923c.1169077-.87784184-.4707692-1.63075681-1.2930461-1.63075681h-.2934462v-2.13465646c.1757539-.06204422.3522923-.06204422.5288308-.06204422 3.2310462 0 4.8144 2.32078912 4.1694462 5.71142177h-4.698277z"/></g></g></svg>

<?xml version="1.0" encoding="UTF-8"?>
<svg width="102px" height="17px" viewBox="0 0 102 17" version="1.1" xmlns="http://www.w3.org/2000/svg" xmlns:xlink="http://www.w3.org/1999/xlink">
    <!-- Generator: sketchtool 45.2 (43514) - http://www.bohemiancoding.com/sketch -->
    <title>42AA20DD-121D-49C5-AB74-C55D4852D03C</title>
    <desc>Created with sketchtool.</desc>
    <defs>
        <polygon id="path-1" points="5.89324615 7.51045255 5.89324615 0.35859881 0.360963059 0.35859881 0.360963059 7.51045255 5.89324615 7.51045255"></polygon>
        <polygon id="path-3" points="0 0.551103571 0 9.83845221 9.80659385 9.83845221 9.80659385 0.551103571 2.12670426e-20 0.551103571"></polygon>
    </defs>
    <g id="Page-1" stroke="none" stroke-width="1" fill="none" fill-rule="evenodd">
        <g id="PrimeReact-Showcase---Homepage" transform="translate(-823.000000, -1205.000000)">
            <g id="homepage" transform="translate(301.000000, 70.000000)">
                <g id="brands" transform="translate(0.000000, 1019.000000)">
                    <g transform="translate(109.000000, 27.000000)" id="verizon">
                        <g transform="translate(413.000000, 89.000000)">
                            <polygon id="Fill-1" fill="#FFFFFF" points="64.7112323 8.07527466 64.7685092 8.07527466 65.1804323 13.3465179 66.2945862 13.3465179 69.2321862 6.56860629 68.1745246 6.56860629 66.0019246 11.9027321 65.6496323 6.56860629 64.4170015 6.56860629 62.3032477 11.9027321 61.9493862 6.56860629 60.7763862 6.56860629 61.4809708 13.3465179 62.5966938 13.3465179"></polygon>
                            <polygon id="Fill-2" fill="#FFFFFF" points="71.2295031 5.37702194 71.2295031 5.37702194 71.4625338 4.05900153 70.4056569 4.05900153 70.1718415 5.37702194"></polygon>
                            <polygon id="Fill-3" fill="#FFFFFF" points="71.0509246 6.56835476 71.0509246 6.56835476 69.9948323 6.56835476 68.8783246 13.3462663 69.9367708 13.3462663"></polygon>
                            <g id="Group-17" transform="translate(71.400000, 3.507730)">
                                <path d="M1.76648308,5.88497789 C1.94223692,4.88220918 2.70645231,4.06473469 3.70448308,4.06473469 L4.05756,4.06473469 L4.28980615,2.87415646 L3.99714462,2.87415646 C3.17565231,2.87415646 2.52991385,3.37554082 2.00265231,4.1905 L2.17762154,3.06028912 L1.17880615,3.06028912 L0.00502153846,9.83820068 L1.12074462,9.83820068 L1.76648308,5.88497789 Z" id="Fill-4" fill="#FFFFFF"></path>
                                <path d="M4.93640769,5.88497789 L4.93640769,5.88497789 C5.11451538,4.94341497 5.87637692,4.06473469 6.69865385,3.93896939 L6.69865385,2.93703912 C4.99760769,3.18689286 3.99722308,4.75644388 3.6465,6.63873129 C3.35148462,8.58222449 4.17376154,10.0260102 5.93522308,10.0260102 C6.23023846,10.0260102 6.5229,10.0260102 6.69865385,9.96480442 L6.69865385,8.95952041 C6.58096154,9.02240306 6.40520769,9.02240306 6.23023846,9.02240306 C5.0541,9.02240306 4.52605385,8.20660544 4.76143846,6.82654082 L6.69865385,6.82654082 L6.69865385,5.88497789 L4.93640769,5.88497789 Z M6.69865385,9.96480442 L6.69865385,8.95952041 C7.46365385,8.77087245 7.99248462,8.14288435 8.10860769,7.70438265 L9.1647,7.70438265 C9.10663846,8.01879592 8.63586923,9.02240306 7.75631538,9.58667007 C7.52014615,9.71327381 7.22748462,9.9002449 6.69865385,9.96480442 L6.69865385,9.96480442 Z M6.69865385,3.93896939 C6.81713077,3.87692517 6.93482308,3.87692517 7.05251538,3.87692517 C8.34242308,3.87692517 8.57780769,4.88220918 8.46011538,5.88497789 L6.69865385,5.88497789 L6.69865385,6.82654082 L9.40008462,6.82654082 C9.45893077,6.4492449 9.51777692,6.07362585 9.51777692,5.76005102 L9.51777692,5.32071088 C9.45893077,3.81488095 8.75356154,2.87415646 7.34517692,2.87415646 C7.10979231,2.87415646 6.93482308,2.87415646 6.69865385,2.93703912 L6.69865385,3.93896939 Z" id="Fill-6" fill="#FFFFFF"></path>
                                <path d="M13.9211169,5.88497789 L13.9211169,5.88497789 C14.1000092,4.94341497 14.8603015,4.06473469 15.7429938,3.93896939 L15.7429938,2.93703912 C13.9807477,3.18689286 12.9811477,4.75644388 12.6877015,6.63873129 C12.3369785,8.58222449 13.1592554,10.0260102 14.9787785,10.0260102 C15.27144,10.0260102 15.5068246,10.0260102 15.7429938,9.96480442 L15.7429938,8.95952041 C15.5656708,9.02240306 15.4487631,9.02240306 15.27144,9.02240306 C14.0388092,9.02240306 13.5703938,8.20660544 13.8034246,6.82654082 L15.7429938,6.82654082 L15.7429938,5.88497789 L13.9211169,5.88497789 Z M15.7429938,9.96480442 L15.7429938,8.95952041 C16.5048554,8.77087245 17.0336862,8.14288435 17.1513785,7.70438265 L18.20904,7.70438265 C18.0905631,8.01879592 17.6802092,9.02240306 16.7410246,9.58667007 C16.5048554,9.71327381 16.2121938,9.9002449 15.7429938,9.96480442 L15.7429938,9.96480442 Z M15.7429938,3.93896939 C15.8002708,3.87692517 15.9187477,3.87692517 16.0356554,3.87692517 C17.3263477,3.87692517 17.5625169,4.88220918 17.44404,5.88497789 L15.7429938,5.88497789 L15.7429938,6.82654082 L18.44364,6.82654082 C18.5024862,6.4492449 18.5024862,6.07362585 18.5597631,5.76005102 L18.5597631,5.32071088 C18.5024862,3.81488095 17.7979015,2.87415646 16.3291015,2.87415646 C16.1541323,2.87415646 15.9187477,2.87415646 15.7429938,2.93703912 L15.7429938,3.93896939 Z" id="Fill-8" fill="#FFFFFF"></path>
                                <polygon id="Fill-10" fill="#FFFFFF" points="12.5703231 0.551438946 11.5134462 0.551438946 9.98658462 9.83878759 11.0450308 9.83878759"></polygon>
                                <path d="M24.3739985,5.00604609 C24.4336292,4.63042704 24.5505369,2.87390493 22.3190908,2.87390493 C21.0268292,2.87390493 19.7934138,3.50021616 19.4991831,5.00604609 C19.38306,5.94760901 19.8530446,6.4498318 20.7325985,6.69968554 L21.9071677,7.01409881 C22.7882908,7.26479099 23.0833062,7.45343895 23.0228908,7.95566173 C22.9051985,8.70773827 22.1433369,9.02215153 21.3799062,9.02215153 C19.8530446,9.02215153 19.8530446,8.20635391 19.9103215,7.64292534 L18.8542292,7.64292534 C18.7953831,8.45788452 18.6776908,10.0257587 21.2033677,10.0257587 C22.6721677,10.0257587 23.9047985,9.21079949 24.1393985,7.76785221 C24.2563062,6.8883335 23.9047985,6.3240665 22.6117523,6.0113301 L21.6145062,5.69691684 C20.7930138,5.50826888 20.5003523,5.38250357 20.6156908,4.81739813 C20.7325985,3.93871786 21.6725677,3.81462942 22.0264292,3.81462942 C23.3767523,3.81462942 23.3767523,4.56754439 23.3163369,5.00604609 L24.3739985,5.00604609 Z" id="Fill-12" fill="#FFFFFF"></path>
                                <g id="Group-16" transform="translate(24.323077, 2.515306)">
                                    <mask id="mask-2" fill="white">
                                        <use xlink:href="#path-1"></use>
                                    </mask>
                                    <g id="Clip-15"></g>
                                    <path d="M5.86507846,2.49073997 C5.92235538,2.11512092 6.10124769,0.35859881 3.81017077,0.35859881 C2.57675538,0.35859881 1.28292462,0.984910034 1.04989385,2.49073997 C0.872570769,3.43230289 1.40140154,3.93452568 2.22289385,4.18437942 L3.39903231,4.49879269 C4.27858615,4.74948486 4.63244769,4.93813282 4.51397077,5.44035561 C4.39549385,6.19243214 3.63284769,6.50684541 2.87098615,6.50684541 C1.40140154,6.50684541 1.40140154,5.69104779 1.40140154,5.12761922 L0.404155385,5.12761922 C0.287247692,5.9425784 0.226832308,7.51045255 2.75250923,7.51045255 C4.16010923,7.51045255 5.39430923,6.69549337 5.62890923,5.25254609 C5.74738615,4.37302738 5.39430923,3.80876037 4.16010923,3.49602398 L3.10637077,3.18161071 C2.34215538,2.99296276 1.98829385,2.86719745 2.10598615,2.30209201 C2.22289385,1.42341173 3.22249385,1.2993233 3.51750923,1.2993233 C4.86783231,1.2993233 4.92510923,2.05223827 4.86783231,2.49073997 L5.86507846,2.49073997 Z" id="Fill-14" fill="#FFFFFF" mask="url(#mask-2)"></path>
                                </g>
                            </g>
                            <polygon id="Fill-18" fill="#FFFFFF" points="31.7094462 4.05942075 31.2983077 6.75750578 35.5838769 6.75750578 30.0648923 14.5381861 29.7118154 16.9226963 38.3457231 16.9226963 58.3102615 16.9226963 58.7214 15.0697541 34.0570154 14.1608901 39.5783538 6.38188673 39.9894923 4.05942075"></polygon>
                            <g id="Group-35" transform="translate(0.000000, 0.153989)">
                                <polygon id="Fill-20" fill="#FFFFFF" points="29.3606215 13.1921937 29.3606215 13.1921937 25.8949754 13.1921937 27.4210523 3.90484507 30.8866985 3.90484507"></polygon>
                                <polygon id="Fill-22" fill="#FFFFFF" points="27.5997877 2.7134284 27.5997877 2.7134284 28.0674185 0.077387585 31.53228 0.077387585 31.0622954 2.7134284"></polygon>
                                <g id="Group-26" transform="translate(0.000000, 3.353741)">
                                    <mask id="mask-4" fill="white">
                                        <use xlink:href="#path-3"></use>
                                    </mask>
                                    <g id="Clip-25"></g>
                                    <polygon id="Fill-24" fill="#FFFFFF" mask="url(#mask-4)" points="1.46613231 9.83845221 -0.000313846154 0.551103571 3.46297846 0.551103571 3.99259385 6.38661378 6.51670154 0.551103571 9.80659385 0.551103571 5.34291692 9.83845221"></polygon>
                                </g>
                                <path d="M49.3843985,13.1921937 L50.9104754,3.90484507 L54.0818908,3.90484507 L53.8480754,5.40983656 C54.78726,4.28130255 55.7845062,3.65331446 57.0767677,3.65331446 C59.3662754,3.65331446 60.2489677,5.09710017 59.7766292,7.60653724 L58.8970754,13.1921937 L55.4306446,13.1921937 L56.1956446,8.23620221 C56.3698292,7.35752194 56.2552754,6.54088588 55.3145215,6.54088588 C54.2584292,6.54088588 53.8480754,7.2309182 53.6119062,8.4231733 L52.8476908,13.1921937 L49.3843985,13.1921937 Z" id="Fill-27" fill="#FFFFFF"></path>
                                <path d="M18.7905185,13.1921937 L20.3165954,3.90484507 L23.4864415,3.90484507 L23.1365031,5.72508827 L23.19378,5.72508827 C23.89758,4.3441852 24.8979646,3.65331446 26.1886569,3.65331446 C26.3063492,3.65331446 26.4813185,3.71619711 26.5990108,3.71619711 L26.0136877,7.35752194 C25.7767338,7.29212398 25.5429185,7.2309182 25.36638,7.2309182 C23.9579954,7.2309182 23.1365031,7.98383316 22.7818569,9.99272432 L22.2538108,13.1921937 L18.7905185,13.1921937 Z" id="Fill-29" fill="#FFFFFF"></path>
                                <path d="M44.5686646,6.16459609 C43.6875415,6.41444983 43.2771877,7.54466071 43.1022185,8.42250255 C42.8072031,10.1798631 43.3352492,10.9973376 44.2171569,10.9973376 C44.3348492,10.9973376 44.4525415,10.9344549 44.5686646,10.9344549 L44.5686646,13.3793325 C44.2744338,13.4422151 43.9817723,13.4422151 43.62948,13.4422151 C40.8111415,13.4422151 38.9312031,11.8114583 39.4608185,8.61198895 C39.9284492,5.66153486 41.9849262,3.96789541 44.5686646,3.7163648 L44.5686646,6.16459609 Z M45.0394338,6.10171344 C44.8644646,6.10171344 44.7459877,6.10171344 44.5686646,6.16459609 L44.5686646,3.7163648 C44.8032646,3.65348214 45.0394338,3.65348214 45.2136185,3.65348214 C48.3269723,3.65348214 49.9134646,5.59865221 49.4419108,8.42250255 C48.9146492,11.4358393 46.9758646,13.0665961 44.5686646,13.3793325 L44.5686646,10.9344549 C45.3320954,10.7449685 45.8601415,9.93000935 46.0963108,8.42250255 C46.3293415,7.04243793 45.9182031,6.03799235 45.0394338,6.10171344 L45.0394338,6.10171344 Z" id="Fill-31" fill="#FFFFFF"></path>
                                <path d="M12.3292892,7.48119116 L13.9157815,7.48119116 L13.9157815,9.36515544 L12.0366277,9.36515544 C11.8608738,10.492851 12.5081815,11.1837218 13.4465815,11.1837218 C13.62312,11.1837218 13.7408123,11.1837218 13.9157815,11.1216776 L13.9157815,13.379584 C13.5627046,13.4416282 13.2119815,13.4416282 12.85812,13.4416282 C10.0405662,13.4416282 8.16219692,11.7488272 8.68945846,8.61224048 C9.15944308,5.7875517 11.3328277,3.90526429 13.9157815,3.71577789 L13.9157815,5.85043435 C13.0354431,5.97452279 12.5081815,6.60334932 12.3292892,7.48119116 L12.3292892,7.48119116 Z M13.9157815,13.379584 L13.9157815,11.1216776 C14.2680738,10.9967507 14.6203662,10.7452201 14.8557508,10.3679241 L18.20292,10.3679241 C17.3814277,12.3139327 15.6191815,13.1288918 13.9157815,13.379584 L13.9157815,13.379584 Z M13.9157815,7.48119116 L15.5022738,7.48119116 C15.6191815,6.60334932 15.0315046,5.85043435 14.2092277,5.85043435 L13.9157815,5.85043435 L13.9157815,3.71577789 C14.0915354,3.65373367 14.2680738,3.65373367 14.4446123,3.65373367 C17.6756585,3.65373367 19.2590123,5.97452279 18.6140585,9.36515544 L13.9157815,9.36515544 L13.9157815,7.48119116 Z" id="Fill-33" fill="#FFFFFF"></path>
                            </g>
                        </g>
                    </g>
                </g>
            </g>
        </g>
    </g>
</svg>
